X: 45
M: 6/8
L: 1/8
K: A
E |\
agf d2f | fec A2c | "a."efe dcB | A2z A2z :|
|: e |\
a2e g2e | fec Ace | A2e g2e | fec B3 |
a2e g2e | fec Acd | efe dcB | A2Z Za :|
P: Var:
"a."e2e |] y6 y6 y6 y6 y6 y6 y6 y6


